X:1065
T:Lamentation for the Fairies
R:hornpipe
M:C|
K:G
|: GFGA BGAG | BGBd c2BA | GFGA BGGA | Bdgd c2Bc |
d2ed cAdc | BGAB c2Bc | d2~d2 ecAF |1 GBAF GDEF :|2 GBAF G4 |
|: G2g=f (3efg fe | dcd_f ecAF | G2g=f (3efg fe | dcde ecA^F |
G2 (3Bcd ecBA | dGAB c2Bc | d2~d2 ecAF | GBAF G4 :|
